public/assets/images/usersIcon.svg

<svg width="65" height="64" viewBox="0 0 65 64" fill="none" xmlns="http://www.w3.org/2000/svg">
<g clip-path="url(#clip0_46_153)">
<mask id="mask0_46_153" style="mask-type:luminance" maskUnits="userSpaceOnUse" x="0" y="0" width="65" height="64">
<path d="M64.5 0H0.5V64H64.5V0Z" fill="white"/>
</mask>
<g mask="url(#mask0_46_153)">
<path d="M32.5 64C28.1694 64 24.1134 61.9867 21.492 58.5733C17.2254 59.128 12.9347 57.688 9.87335 54.6267C6.81202 51.5653 5.36935 47.2747 5.92669 43.008C2.51602 40.3867 0.502686 36.3333 0.502686 32C0.502686 27.6667 2.51602 23.6133 5.92669 20.992C5.36935 16.7253 6.81202 12.4347 9.87335 9.37333C12.9347 6.30933 17.228 4.86133 21.492 5.42667C24.1134 2.01333 28.1694 0 32.5 0C36.8307 0 40.8867 2.01333 43.508 5.42667C47.7694 4.86133 52.0627 6.30933 55.1267 9.37333C58.1907 12.4373 59.6307 16.7253 59.0734 20.992C62.484 23.6133 64.4974 27.6667 64.4974 32C64.4974 36.3333 62.484 40.3867 59.0734 43.008C59.6307 47.2747 58.188 51.5653 55.1267 54.6267C52.0627 57.688 47.7667 59.128 43.508 58.5733C40.8867 61.9867 36.8307 64 32.5 64ZM22.7027 55.648L23.196 56.3787C25.2894 59.48 28.7667 61.3307 32.5 61.3307C36.2334 61.3307 39.7107 59.48 41.804 56.3787L42.2974 55.648L43.164 55.816C46.828 56.5307 50.5987 55.3787 53.2414 52.7413C55.8814 50.1013 57.0307 46.3333 56.316 42.6613L56.1507 41.7947L56.8814 41.3013C59.98 39.2107 61.8307 35.7333 61.8307 32C61.8307 28.2667 59.98 24.7893 56.8814 22.6987L56.1507 22.2053L56.316 21.3387C57.0307 17.6667 55.8814 13.896 53.2414 11.2587C50.5987 8.61867 46.828 7.46933 43.164 8.184L42.2974 8.352L41.804 7.62133C39.7107 4.52 36.2334 2.66933 32.5 2.66933C28.7667 2.66933 25.2894 4.52 23.196 7.62133L22.7027 8.352L21.836 8.184C18.1747 7.46667 14.3987 8.62133 11.7587 11.2587C9.11869 13.896 7.96935 17.6667 8.68402 21.3387L8.84935 22.2053L8.11869 22.6987C5.02002 24.7893 3.16935 28.2667 3.16935 32C3.16935 35.7333 5.02002 39.2107 8.11869 41.3013L8.84935 41.7947L8.68402 42.6613C7.96935 46.3333 9.11869 50.104 11.7587 52.7413C14.3987 55.3787 18.1747 56.5307 21.836 55.816L22.7027 55.648ZM31.3187 38.8347L46.7667 23.616L44.8974 21.7173L29.4414 36.9413C28.924 37.4613 28.0787 37.4613 27.54 36.928L20.092 29.7093L18.2387 31.624L25.6707 38.8293C26.452 39.6107 27.4787 40 28.5027 40C29.5267 40 30.5454 39.6107 31.3187 38.8347Z" fill="white"/>
</g>
</g>
<defs>
<clipPath id="clip0_46_153">
<rect width="65" height="64" fill="white"/>
</clipPath>
</defs>
</svg>

<svg xmlns="http://www.w3.org/2000/svg" width="65" height="64" fill="none"><g clip-path="url(#a)"><mask id="b" width="65" height="64" x="0" y="0" maskUnits="userSpaceOnUse" style="mask-type:luminance"><path fill="#fff" d="M64.5 0H.5v64h64z"/></mask><g mask="url(#b)"><path fill="#fff" d="M32.5 64c-4.33 0-8.387-2.013-11.008-5.427A13.874 13.874 0 0 1 5.927 43.008 13.87 13.87 0 0 1 .503 32a13.87 13.87 0 0 1 5.424-11.008A13.87 13.87 0 0 1 9.873 9.373a13.84 13.84 0 0 1 11.619-3.946A13.87 13.87 0 0 1 32.5 0c4.33 0 8.387 2.013 11.008 5.427a13.85 13.85 0 0 1 11.619 3.946 13.87 13.87 0 0 1 3.946 11.619A13.87 13.87 0 0 1 64.497 32a13.87 13.87 0 0 1-5.424 11.008 13.875 13.875 0 0 1-15.565 15.565A13.87 13.87 0 0 1 32.5 64m-9.797-8.352.493.73a11.21 11.21 0 0 0 9.304 4.953c3.733 0 7.21-1.851 9.304-4.952l.493-.731.867.168a11.22 11.22 0 0 0 10.077-3.075 11.2 11.2 0 0 0 3.075-10.08l-.165-.866.73-.494A11.21 11.21 0 0 0 61.831 32c0-3.733-1.851-7.21-4.95-9.301l-.73-.494.165-.866A11.21 11.21 0 0 0 43.164 8.184l-.867.168-.493-.73A11.21 11.21 0 0 0 32.5 2.668c-3.733 0-7.21 1.851-9.304 4.952l-.493.731-.867-.168A11.21 11.21 0 0 0 8.684 21.339l.165.866-.73.494A11.21 11.21 0 0 0 3.169 32c0 3.733 1.851 7.21 4.95 9.301l.73.494-.165.866a11.2 11.2 0 0 0 3.075 10.08 11.22 11.22 0 0 0 10.077 3.075zm8.616-16.813 15.448-15.219-1.87-1.899-15.456 15.224c-.517.52-1.362.52-1.901-.013l-7.448-7.219-1.853 1.915 7.432 7.205A4 4 0 0 0 28.503 40a3.96 3.96 0 0 0 2.816-1.165"/></g></g><defs><clipPath id="a"><path fill="#fff" d="M0 0h65v64H0z"/></clipPath></defs></svg>
